packages/ffe-icons/icons/filled/sm/note_stack.svg

<svg xmlns="http://www.w3.org/2000/svg" height="20" viewBox="0 -960 960 960" width="20"><path d="M308.001-180.309v-406.998q0-26.923 18.5-45.807 18.5-18.885 45.423-18.885h407.767q26.923 0 45.615 18.693 18.693 18.692 18.693 45.615v291.229L663.538-116.001H372.309q-26.923 0-45.615-18.693-18.693-18.692-18.693-45.615Zm-190-515.767q-4.615-25.923 11.154-48.423 15.769-22.5 41.692-27.115l400.383-71.385q25.923-4.615 47.923 11.154 21.999 15.769 26.615 41.692l10.231 58.462h-283.69q-60 0-102 42t-42 102v339.612q-14.846-5.846-25.385-18.499-10.538-12.654-13.538-29.116l-71.385-400.382ZM792-336H656.154q-13.462 0-22.808 9.346T624-303.846V-168l168-168Z"/></svg>

<svg xmlns="http://www.w3.org/2000/svg" height="20" viewBox="0 -960 960 960" width="20"><path d="M308-180.31v-407q0-26.92 18.5-45.8Q345-652 371.92-652h407.77q26.92 0 45.62 18.69Q844-614.61 844-587.69v264.3q0 12.47-4.62 24.31-4.61 11.85-14.46 21.69L682.61-135.08q-9.84 9.85-21.69 14.46-11.84 4.62-24.31 4.62h-264.3q-26.92 0-45.62-18.69Q308-153.39 308-180.31ZM118-696.08q-4.61-25.92 11.16-48.42 15.76-22.5 41.69-27.11L571.23-843q25.92-4.61 47.92 11.16 22 15.76 26.62 41.69L656-731.69H372.31q-60 0-102 42t-42 102v339.61q-14.85-5.84-25.39-18.5-10.53-12.65-13.53-29.11L118-696.08ZM792-336H656.15q-13.46 0-22.8 9.35-9.35 9.34-9.35 22.8V-168l168-168Z"/></svg>
